Simply-Red-Circles/scalable/apps/synaptic.svg

<svg xmlns="http://www.w3.org/2000/svg" width="48" height="48" viewBox="0 0 12.7 12.7"><path fill="#a02c2c" d="M6.344.073a6.29 6.29 0 0 0-6.29 6.29 6.29 6.29 0 0 0 6.29 6.288 6.29 6.29 0 0 0 6.29-6.289 6.29 6.29 0 0 0-6.29-6.29zm-.018.936a5.407 5.407 0 0 1 5.407 5.407 5.407 5.407 0 0 1-5.407 5.407A5.407 5.407 0 0 1 .92 6.416 5.407 5.407 0 0 1 6.326 1.01zm.048.432a1.69 1.69 0 0 0-1.687 1.687v.562H3.615A.614.614 0 0 0 3 4.305v5.517c0 .34.275.615.615.615h5.517c.34 0 .615-.274.615-.615V4.305a.614.614 0 0 0-.615-.615H8.06v-.562a1.69 1.69 0 0 0-1.686-1.687zm0 .562c.628 0 1.124.497 1.124 1.125v.562H5.25v-.562c0-.628.497-1.125 1.125-1.125zM4.95 4.253c.16 0 .298.125.298.28 0 .156-.137.282-.298.282a.277.277 0 0 1-.282-.281c0-.156.12-.282.282-.282zm2.81 0c.162 0 .3.125.3.28 0 .156-.138.282-.3.282a.277.277 0 0 1-.28-.281c0-.156.12-.282.28-.282zm-2.393 1.73h1.964v1.198h.756L6.346 9.298 4.612 7.18h.756V5.984z"/><path fill="green" d="M7.597 7.403L6.342 8.926 5.094 7.403h.545V6.206h1.414v1.197z" opacity=".75"/></svg>

<?xml version="1.0" encoding="UTF-8" standalone="no"?>
<svg
   xmlns:dc="http://purl.org/dc/elements/1.1/"
   xmlns:cc="http://creativecommons.org/ns#"
   xmlns:rdf="http://www.w3.org/1999/02/22-rdf-syntax-ns#"
   xmlns:svg="http://www.w3.org/2000/svg"
   xmlns="http://www.w3.org/2000/svg"
   xmlns:sodipodi="http://sodipodi.sourceforge.net/DTD/sodipodi-0.dtd"
   xmlns:inkscape="http://www.inkscape.org/namespaces/inkscape"
   width="48"
   height="48"
   viewBox="0 0 12.7 12.7"
   version="1.1"
   id="svg6"
   sodipodi:docname="synaptic.svg"
   inkscape:version="0.92.4 (5da689c313, 2019-01-14)">
  <metadata
     id="metadata12">
    <rdf:RDF>
      <cc:Work
         rdf:about="">
        <dc:format>image/svg+xml</dc:format>
        <dc:type
           rdf:resource="http://purl.org/dc/dcmitype/StillImage" />
        <dc:title></dc:title>
      </cc:Work>
    </rdf:RDF>
  </metadata>
  <defs
     id="defs10" />
  <sodipodi:namedview
     pagecolor="#ffffff"
     bordercolor="#666666"
     borderopacity="1"
     objecttolerance="10"
     gridtolerance="10"
     guidetolerance="10"
     inkscape:pageopacity="0"
     inkscape:pageshadow="2"
     inkscape:window-width="1087"
     inkscape:window-height="480"
     id="namedview8"
     showgrid="false"
     inkscape:zoom="4.9166667"
     inkscape:cx="2.1355932"
     inkscape:cy="24"
     inkscape:window-x="0"
     inkscape:window-y="25"
     inkscape:window-maximized="0"
     inkscape:current-layer="svg6" />
  <path
     d="m 6.344,0.073 a 6.29,6.29 0 0 0 -6.29,6.29 6.29,6.29 0 0 0 6.29,6.288 6.29,6.29 0 0 0 6.29,-6.289 6.29,6.29 0 0 0 -6.29,-6.29 z M 6.326,1.009 A 5.407,5.407 0 0 1 11.733,6.416 5.407,5.407 0 0 1 6.326,11.823 5.407,5.407 0 0 1 0.92,6.416 5.407,5.407 0 0 1 6.326,1.01 Z M 6.374,1.441 A 1.69,1.69 0 0 0 4.687,3.128 V 3.69 H 3.615 A 0.614,0.614 0 0 0 3,4.305 v 5.517 c 0,0.34 0.275,0.615 0.615,0.615 h 5.517 c 0.34,0 0.615,-0.274 0.615,-0.615 V 4.305 A 0.614,0.614 0 0 0 9.132,3.69 H 8.06 V 3.128 A 1.69,1.69 0 0 0 6.374,1.441 Z m 0,0.562 c 0.628,0 1.124,0.497 1.124,1.125 V 3.69 H 5.25 V 3.128 C 5.25,2.5 5.747,2.003 6.375,2.003 Z M 4.95,4.253 c 0.16,0 0.298,0.125 0.298,0.28 0,0.156 -0.137,0.282 -0.298,0.282 A 0.277,0.277 0 0 1 4.668,4.534 c 0,-0.156 0.12,-0.282 0.282,-0.282 z m 2.81,0 c 0.162,0 0.3,0.125 0.3,0.28 0,0.156 -0.138,0.282 -0.3,0.282 A 0.277,0.277 0 0 1 7.48,4.534 C 7.48,4.378 7.6,4.252 7.76,4.252 Z M 5.367,5.983 H 7.331 V 7.181 H 8.087 L 6.346,9.298 4.612,7.18 H 5.368 V 5.984 Z"
     id="path2"
     inkscape:connector-curvature="0"
     style="fill:#a02c2c" />
  <path
     d="M 7.597,7.403 6.342,8.926 5.094,7.403 H 5.639 V 6.206 h 1.414 v 1.197 z"
     id="path4"
     inkscape:connector-curvature="0"
     style="opacity:0.75;fill:#008000" />
</svg>
